bundles/org.openhab.ui.habpanel/web/assets/icons/freepik-housethings/living-room-books-group.svg

<svg xmlns="http://www.w3.org/2000/svg" width="97.391" height="97.391" style="enable-background:new 0 0 97.391 97.391" xml:space="preserve"><path d="M0 7.573h17.5v8.75H0v-8.75zm0 12.25h17.5v59.501H0V19.823zm3.208 48.489a5.469 5.469 0 1 0 10.938 0 5.468 5.468 0 0 0-5.469-5.47 5.47 5.47 0 0 0-5.469 5.47zM0 89.824h17.5v-7H0v7zM21 81.6v8.225h22.75v-8.268c-.929-.664-3.815-2.232-10.5-2.232-6.337-.001-10.384 1.419-12.25 2.275zm0-50.343c1.866.854 5.913 2.276 12.25 2.276 6.643-.001 9.536-1.55 10.5-2.245v-6.215H21v6.184zm0 3.789V77.81c2.534-.948 6.592-1.985 12.25-1.985 5.105 0 8.417.854 10.5 1.767V35.268c-2.083.91-5.395 1.765-10.5 1.765-5.658-.002-9.716-1.039-12.25-1.987zM80.859 7.18l-12 2.462 1.76 8.571 12-2.462-1.76-8.571zm14.42 70.289-11.998 2.463L71.32 21.643l12-2.462 11.959 58.288zM91.116 67.08c-.607-2.957-2.972-4.971-5.275-4.498-2.307.475-3.688 3.258-3.077 6.215.606 2.957 2.969 4.973 5.274 4.498 2.308-.473 3.687-3.254 3.078-6.215zm4.868 13.813-12.002 2.464 1.408 6.854 12-2.463-1.406-6.855zM49 16.323h17.5v-8.75H49v8.75zm0 73.501h17.5v-7H49v7zm0-19.25h17.5V28.573H49v42.001zm0 8.75h17.5v-5.25H49v5.25zm0-54.251h17.5v-5.25H49v5.25z"/></svg>

<?xml version="1.0" encoding="iso-8859-1"?>
<!-- Generator: Adobe Illustrator 16.0.0, SVG Export Plug-In . SVG Version: 6.00 Build 0)  -->
<!DOCTYPE svg PUBLIC "-//W3C//DTD SVG 1.1//EN" "http://www.w3.org/Graphics/SVG/1.1/DTD/svg11.dtd">
<svg version="1.1" id="Capa_1" xmlns="http://www.w3.org/2000/svg" xmlns:xlink="http://www.w3.org/1999/xlink" x="0px" y="0px"
	 width="97.391px" height="97.391px" viewBox="0 0 97.391 97.391" style="enable-background:new 0 0 97.391 97.391;"
	 xml:space="preserve">
<g>
	<path d="M0,7.573h17.5v8.75H0V7.573z M0,19.823h17.5v59.501H0V19.823z M3.208,68.312c0,3.021,2.447,5.47,5.469,5.47
		c3.021,0,5.469-2.447,5.469-5.47s-2.448-5.47-5.469-5.47C5.655,62.843,3.208,65.293,3.208,68.312z M0,89.824h17.5v-7H0V89.824z
		 M21,81.6v1.225v7h22.75v-8.268c-0.929-0.664-3.815-2.232-10.5-2.232C26.913,79.324,22.866,80.744,21,81.6z M21,31.257
		c1.866,0.854,5.913,2.276,12.25,2.276c6.643-0.001,9.536-1.55,10.5-2.245v-6.215H21V31.257z M21,35.046V77.81
		c2.534-0.948,6.592-1.985,12.25-1.985c5.105,0,8.417,0.854,10.5,1.767V35.268c-2.083,0.91-5.395,1.765-10.5,1.765
		C27.592,37.031,23.534,35.994,21,35.046z M80.859,7.18l-12,2.462l1.76,8.571l12-2.462L80.859,7.18z M95.279,77.469l-11.998,2.463
		L71.32,21.643l12-2.462L95.279,77.469z M91.116,67.08c-0.607-2.957-2.972-4.971-5.275-4.498c-2.307,0.475-3.688,3.258-3.077,6.215
		c0.606,2.957,2.969,4.973,5.274,4.498C90.346,72.822,91.725,70.041,91.116,67.08z M95.984,80.893l-12.002,2.464l1.408,6.854
		l12-2.463L95.984,80.893z M49,16.323h17.5v-8.75H49V16.323z M49,89.824h17.5v-7H49V89.824z M49,70.574h17.5V28.573H49V70.574z
		 M49,79.324h17.5v-5.25H49V79.324z M49,25.073h17.5v-5.25H49V25.073z"/>
</g>
<g>
</g>
<g>
</g>
<g>
</g>
<g>
</g>
<g>
</g>
<g>
</g>
<g>
</g>
<g>
</g>
<g>
</g>
<g>
</g>
<g>
</g>
<g>
</g>
<g>
</g>
<g>
</g>
<g>
</g>
</svg>
